flaticon/pins-and-locations/placeholder-30.svg

<svg xmlns="http://www.w3.org/2000/svg" width="32" height="32" viewBox="0 0 24 24">
    <path d="M 23.769531 15.160156 C 23.046875 14.199219 22.328125 14.199219 20.566406 15.121094 L 17.128906 17.238281 C 16.648438 17.519531 15.566406 17.601562 14.566406 17.601562 C 14.769531 17.238281 14.6875 16.800781 14.328125 16.28125 C 13.6875 15.359375 12.609375 14.800781 11.449219 14.800781 L 9.886719 14.800781 C 9.046875 14.800781 8.25 14.519531 7.609375 14.039062 C 6.164062 12.957031 3.90625 14.136719 2.808594 14.839844 L 2.808594 14 L 0.0078125 14 L 0.0078125 24 L 2.808594 24 L 2.808594 23.199219 L 8.007812 23.199219 C 8.808594 23.199219 9.648438 23.121094 10.449219 23.078125 L 15.648438 22.28125 C 15.847656 22.28125 16.046875 22.238281 16.207031 22.199219 C 16.6875 22.121094 17.128906 21.878906 17.527344 21.519531 L 23.566406 16.761719 C 24.046875 16.359375 24.128906 15.640625 23.769531 15.160156 Z M 0.808594 23.199219 L 0.808594 14.800781 L 2.007812 14.800781 L 2.007812 23.199219 Z M 23.089844 16.160156 L 17.007812 20.878906 L 16.96875 20.921875 C 16.726562 21.199219 16.40625 21.359375 16.046875 21.398438 C 15.886719 21.441406 15.769531 21.441406 15.609375 21.441406 L 10.328125 22.238281 C 9.566406 22.359375 8.769531 22.398438 8.007812 22.398438 L 2.808594 22.398438 L 2.808594 15.800781 C 3.769531 15.121094 6.007812 13.839844 7.128906 14.679688 C 7.886719 15.28125 8.886719 15.601562 9.886719 15.601562 L 11.449219 15.601562 C 12.367188 15.601562 13.207031 16.039062 13.726562 16.761719 C 13.886719 17 13.929688 17.238281 13.886719 17.320312 C 13.769531 17.519531 13.289062 17.601562 12.769531 17.640625 C 12.667969 17.640625 12.566406 17.640625 12.476562 17.640625 C 12.421875 17.613281 12.359375 17.601562 12.289062 17.601562 L 8.40625 17.601562 C 7.167969 17.601562 6.40625 18.199219 6.40625 19.199219 C 6.40625 19.441406 6.566406 19.601562 6.808594 19.601562 C 7.046875 19.601562 7.207031 19.441406 7.207031 19.199219 C 7.207031 19 7.207031 18.398438 8.40625 18.398438 L 12.289062 18.398438 L 12.289062 18.441406 C 12.40625 18.441406 12.566406 18.441406 12.808594 18.441406 C 12.847656 18.441406 12.929688 18.441406 13.007812 18.441406 C 14.886719 18.480469 16.648438 18.441406 17.566406 17.960938 L 21.007812 15.839844 C 22.6875 15 22.847656 15.199219 23.167969 15.679688 C 23.25 15.800781 23.25 16.039062 23.089844 16.160156 Z M 23.089844 16.160156"/>
    <path d="M 11.6875 13.839844 C 11.726562 13.960938 11.886719 14.039062 12.007812 14.039062 C 12.128906 14.039062 12.289062 13.960938 12.328125 13.878906 C 12.367188 13.839844 14.207031 11 15.40625 8.359375 C 16.046875 7 16.40625 6.199219 16.40625 4.761719 C 16.40625 2.398438 14.769531 0 12.007812 0 C 9.25 0 7.609375 2.398438 7.609375 4.71875 C 7.609375 6.199219 8.007812 7 8.609375 8.320312 C 9.808594 10.960938 11.6875 13.800781 11.6875 13.839844 Z M 12.007812 0.800781 C 14.25 0.800781 15.609375 2.800781 15.609375 4.761719 C 15.609375 6.039062 15.289062 6.71875 14.6875 8 C 13.808594 9.921875 12.609375 11.921875 12.007812 12.878906 C 11.449219 11.921875 10.207031 9.921875 9.328125 8 C 8.726562 6.71875 8.40625 6.039062 8.40625 4.761719 C 8.40625 2.800781 9.769531 0.800781 12.007812 0.800781 Z M 12.007812 0.800781"/>
    <path d="M 12.007812 6.800781 C 13.328125 6.800781 14.40625 5.71875 14.40625 4.398438 C 14.40625 3.078125 13.328125 2 12.007812 2 C 10.6875 2 9.609375 3.078125 9.609375 4.398438 C 9.609375 5.71875 10.6875 6.800781 12.007812 6.800781 Z M 12.007812 2.800781 C 12.886719 2.800781 13.609375 3.519531 13.609375 4.398438 C 13.609375 5.28125 12.886719 6 12.007812 6 C 11.128906 6 10.40625 5.28125 10.40625 4.398438 C 10.40625 3.519531 11.128906 2.800781 12.007812 2.800781 Z M 12.007812 2.800781"/>
</svg>

<svg xmlns="http://www.w3.org/2000/svg" width="32" height="32" viewBox="0 0 24 24">
    <path d="M23.77 15.16c-.723-.96-1.442-.96-3.204-.039l-3.437 2.117c-.48.282-1.563.364-2.563.364.204-.364.121-.801-.238-1.32A3.502 3.502 0 0 0 11.45 14.8H9.887c-.84 0-1.637-.281-2.278-.762-1.445-1.082-3.703.098-4.8.8V14H.008v10h2.8v-.8h5.2c.8 0 1.64-.079 2.441-.122l5.2-.797c.199 0 .398-.043.558-.082.48-.078.922-.32 1.32-.68l6.04-4.757c.48-.403.562-1.121.203-1.602zM.809 23.2v-8.4h1.199v8.4zm22.28-7.04l-6.081 4.719-.04.043a1.402 1.402 0 0 1-.921.476c-.16.043-.277.043-.438.043l-5.28.797c-.763.121-1.56.16-2.321.16h-5.2v-6.597c.962-.68 3.2-1.961 4.32-1.121.759.601 1.759.922 2.759.922h1.562c.918 0 1.758.437 2.278 1.16.16.238.203.476.16.558-.117.2-.598.282-1.117.32h-.293a.413.413 0 0 0-.188-.038H8.406c-1.238 0-2 .597-2 1.597 0 .242.16.403.403.403.238 0 .398-.16.398-.403 0-.199 0-.8 1.2-.8h3.882v.042H13.008c1.879.04 3.64 0 4.558-.48l3.442-2.121c1.68-.84 1.84-.64 2.16-.16.082.12.082.36-.078.48zm0 0"/>
    <path d="M11.688 13.84c.039.12.199.2.32.2.12 0 .281-.08.32-.161.04-.04 1.879-2.879 3.078-5.52.64-1.359 1-2.16 1-3.597C16.406 2.398 14.77 0 12.008 0 9.25 0 7.609 2.398 7.609 4.719c0 1.48.399 2.281 1 3.601 1.2 2.64 3.079 5.48 3.079 5.52zM12.008.8c2.242 0 3.601 2 3.601 3.962 0 1.277-.32 1.957-.921 3.238-.88 1.922-2.079 3.922-2.68 4.879-.559-.957-1.801-2.957-2.68-4.879-.601-1.281-.922-1.96-.922-3.238C8.406 2.8 9.77.8 12.008.8zm0 0"/>
    <path d="M12.008 6.8a2.407 2.407 0 0 0 2.398-2.402A2.404 2.404 0 0 0 12.008 2a2.404 2.404 0 0 0-2.399 2.398 2.407 2.407 0 0 0 2.399 2.403zm0-4c.879 0 1.601.72 1.601 1.598 0 .883-.722 1.602-1.601 1.602a1.606 1.606 0 0 1-1.602-1.602c0-.878.723-1.597 1.602-1.597zm0 0"/>
</svg>
